public/new/iocn2.svg

<svg fill="none" height="80" viewBox="0 0 80 80" width="80" xmlns="http://www.w3.org/2000/svg" xmlns:xlink="http://www.w3.org/1999/xlink"><linearGradient id="a"><stop offset="0" stop-color="#34c796"/><stop offset="1" stop-color="#0b7a55"/></linearGradient><linearGradient id="b" gradientUnits="userSpaceOnUse" x1="40" x2="40" xlink:href="#a" y1="0" y2="80"/><linearGradient id="c" gradientUnits="userSpaceOnUse" x1="54.4848" x2="54.4848" xlink:href="#a" y1="46.2251" y2="62.6584"/><linearGradient id="d" gradientUnits="userSpaceOnUse" x1="25.5011" x2="25.5011" xlink:href="#a" y1="17.2251" y2="33.6584"/><linearGradient id="e" gradientUnits="userSpaceOnUse" x1="46.5154" x2="46.5154" xlink:href="#a" y1="21.6333" y2="45.336"/><linearGradient id="f" gradientUnits="userSpaceOnUse" x1="33.4075" x2="33.4075" xlink:href="#a" y1="43.5186" y2="44.9694"/><linearGradient id="g" gradientUnits="userSpaceOnUse" x1="33.9585" x2="33.9585" xlink:href="#a" y1="47.8877" y2="49.3377"/><linearGradient id="h" gradientUnits="userSpaceOnUse" x1="33.5711" x2="33.5711" xlink:href="#a" y1="34.4897" y2="58.3664"/><circle cx="40" cy="40" r="39" stroke="url(#b)" stroke-width="2"/><path d="m61.267 46.2251c-.7927 0-1.45.6573-1.45 1.45 0 5.7227-3.9827 10.5173-9.338 11.774l.522-.87c.406-.696.1933-1.5853-.5027-1.9913-.6767-.406-1.5853-.1934-1.9913.5026l-2.03 3.3834c-.2707.4446-.2707 1.0053-.0194 1.45.2514.464.7347.7346 1.2567.7346 8.2553 0 14.9833-6.728 14.9833-14.9833.0194-.7927-.638-1.45-1.4306-1.45z" fill="url(#c)"/><path d="m32.2665 17.2251c-8.2553 0-14.9833 6.728-14.9833 14.9833 0 .7927.6573 1.45 1.45 1.45s1.45-.6573 1.45-1.45c0-5.7226 3.9827-10.5173 9.338-11.774l-.522.87c-.406.696-.1933 1.5854.5027 1.9914.6766.406 1.5853.1933 1.9913-.5027l2.03-3.3833c.2513-.4447.2707-.986 0-1.45-.2513-.4447-.7347-.7347-1.2567-.7347z" fill="url(#d)"/><path d="m58.3667 33.562c0 5.9546-4.3306 10.8653-9.9953 11.774 0-.0194 0-.0194 0-.0387-.5607-7.2113-6.3993-13.0887-13.7073-13.6687.9086-5.6646 5.8193-9.9953 11.774-9.9953 6.5926 0 11.9286 5.336 11.9286 11.9287z" fill="url(#e)"/><path d="m35.7662 44.2532c0-.29-.3287-.7346-.7347-.7346h-3.9827v1.45h3.9827c.406.0193.7347-.3094.7347-.7154z" fill="url(#f)"/><path d="m35.8048 47.8877h-.7733-3.9827v1.45h4.7754c.6186 0 1.044-.3867 1.044-.7347s-.4447-.7153-1.0634-.7153z" fill="url(#g)"/><path d="m45.4708 45.5097c-.4447-5.858-5.1233-10.5366-10.9813-10.9813-.3094-.0193-.5994-.0387-.928-.0387-6.5927 0-11.9287 5.336-11.9287 11.948 0 6.5927 5.336 11.9287 11.9287 11.9287 6.5926 0 11.948-5.336 11.948-11.9287 0-.3286-.0194-.6186-.0387-.928zm-9.6667 6.728h-1.276v.7347c0 .7927-.6573 1.45-1.45 1.45-.7926 0-1.45-.6573-1.45-1.45v-.7347h-2.03c-.7926 0-1.45-.6573-1.45-1.45v-4.35-4.35c0-.7926.6574-1.45 1.45-1.45h2.03v-.7346c0-.7927.6574-1.45 1.45-1.45.7927 0 1.45.6573 1.45 1.45v.7346h.5027c1.9333 0 3.6347 1.7014 3.6347 3.6347 0 .5607-.1354 1.0827-.3674 1.566.8894.6573 1.45 1.6627 1.45 2.784 0 1.9913-1.7593 3.6153-3.944 3.6153z" fill="url(#h)"/></svg>

<svg width="80" height="80" viewBox="0 0 80 80" fill="none" xmlns="http://www.w3.org/2000/svg">
<circle cx="40" cy="40" r="39" stroke="url(#paint0_linear_206_4482)" stroke-width="2"/>
<path d="M61.267 46.2251C60.4743 46.2251 59.817 46.8824 59.817 47.6751C59.817 53.3978 55.8343 58.1924 50.479 59.4491L51.001 58.5791C51.407 57.8831 51.1943 56.9938 50.4983 56.5878C49.8216 56.1818 48.913 56.3944 48.507 57.0904L46.477 60.4738C46.2063 60.9184 46.2063 61.4791 46.4576 61.9238C46.709 62.3878 47.1923 62.6584 47.7143 62.6584C55.9696 62.6584 62.6976 55.9304 62.6976 47.6751C62.717 46.8824 62.0596 46.2251 61.267 46.2251Z" fill="url(#paint1_linear_206_4482)"/>
<path d="M32.2665 17.2251C24.0112 17.2251 17.2832 23.9531 17.2832 32.2084C17.2832 33.0011 17.9405 33.6584 18.7332 33.6584C19.5259 33.6584 20.1832 33.0011 20.1832 32.2084C20.1832 26.4858 24.1659 21.6911 29.5212 20.4344L28.9992 21.3044C28.5932 22.0004 28.8059 22.8898 29.5019 23.2958C30.1785 23.7018 31.0872 23.4891 31.4932 22.7931L33.5232 19.4098C33.7745 18.9651 33.7939 18.4238 33.5232 17.9598C33.2719 17.5151 32.7885 17.2251 32.2665 17.2251Z" fill="url(#paint2_linear_206_4482)"/>
<path d="M58.3667 33.562C58.3667 39.5166 54.0361 44.4273 48.3714 45.336C48.3714 45.3166 48.3714 45.3166 48.3714 45.2973C47.8107 38.086 41.9721 32.2086 34.6641 31.6286C35.5727 25.964 40.4834 21.6333 46.4381 21.6333C53.0307 21.6333 58.3667 26.9693 58.3667 33.562Z" fill="url(#paint3_linear_206_4482)"/>
<path d="M35.7662 44.2532C35.7662 43.9632 35.4375 43.5186 35.0315 43.5186H31.0488V44.9686H35.0315C35.4375 44.9879 35.7662 44.6592 35.7662 44.2532Z" fill="url(#paint4_linear_206_4482)"/>
<path d="M35.8048 47.8877H35.0315H31.0488V49.3377H35.8242C36.4428 49.3377 36.8682 48.951 36.8682 48.603C36.8682 48.255 36.4235 47.8877 35.8048 47.8877Z" fill="url(#paint5_linear_206_4482)"/>
<path d="M45.4708 45.5097C45.0261 39.6517 40.3475 34.9731 34.4895 34.5284C34.1801 34.5091 33.8901 34.4897 33.5615 34.4897C26.9688 34.4897 21.6328 39.8257 21.6328 46.4377C21.6328 53.0304 26.9688 58.3664 33.5615 58.3664C40.1541 58.3664 45.5095 53.0304 45.5095 46.4377C45.5095 46.1091 45.4901 45.8191 45.4708 45.5097ZM35.8041 52.2377H34.5281V52.9724C34.5281 53.7651 33.8708 54.4224 33.0781 54.4224C32.2855 54.4224 31.6281 53.7651 31.6281 52.9724V52.2377H29.5981C28.8055 52.2377 28.1481 51.5804 28.1481 50.7877V46.4377V42.0877C28.1481 41.2951 28.8055 40.6377 29.5981 40.6377H31.6281V39.9031C31.6281 39.1104 32.2855 38.4531 33.0781 38.4531C33.8708 38.4531 34.5281 39.1104 34.5281 39.9031V40.6377H35.0308C36.9641 40.6377 38.6655 42.3391 38.6655 44.2724C38.6655 44.8331 38.5301 45.3551 38.2981 45.8384C39.1875 46.4957 39.7481 47.5011 39.7481 48.6224C39.7481 50.6137 37.9888 52.2377 35.8041 52.2377Z" fill="url(#paint6_linear_206_4482)"/>
<defs>
<linearGradient id="paint0_linear_206_4482" x1="40" y1="0" x2="40" y2="80" gradientUnits="userSpaceOnUse">
<stop stop-color="#34C796"/>
<stop offset="1" stop-color="#0B7A55"/>
</linearGradient>
<linearGradient id="paint1_linear_206_4482" x1="54.4848" y1="46.2251" x2="54.4848" y2="62.6584" gradientUnits="userSpaceOnUse">
<stop stop-color="#34C796"/>
<stop offset="1" stop-color="#0B7A55"/>
</linearGradient>
<linearGradient id="paint2_linear_206_4482" x1="25.5011" y1="17.2251" x2="25.5011" y2="33.6584" gradientUnits="userSpaceOnUse">
<stop stop-color="#34C796"/>
<stop offset="1" stop-color="#0B7A55"/>
</linearGradient>
<linearGradient id="paint3_linear_206_4482" x1="46.5154" y1="21.6333" x2="46.5154" y2="45.336" gradientUnits="userSpaceOnUse">
<stop stop-color="#34C796"/>
<stop offset="1" stop-color="#0B7A55"/>
</linearGradient>
<linearGradient id="paint4_linear_206_4482" x1="33.4075" y1="43.5186" x2="33.4075" y2="44.9694" gradientUnits="userSpaceOnUse">
<stop stop-color="#34C796"/>
<stop offset="1" stop-color="#0B7A55"/>
</linearGradient>
<linearGradient id="paint5_linear_206_4482" x1="33.9585" y1="47.8877" x2="33.9585" y2="49.3377" gradientUnits="userSpaceOnUse">
<stop stop-color="#34C796"/>
<stop offset="1" stop-color="#0B7A55"/>
</linearGradient>
<linearGradient id="paint6_linear_206_4482" x1="33.5711" y1="34.4897" x2="33.5711" y2="58.3664" gradientUnits="userSpaceOnUse">
<stop stop-color="#34C796"/>
<stop offset="1" stop-color="#0B7A55"/>
</linearGradient>
</defs>
</svg>
